X: 25968
T: May Mist, The
R: jig
M: 6/8
K: Edorian
EBB BAF|EBB AFd|EBB BAF|dBA FED:|
~e3 ~e3|gfe f2d|~e3 ~e3|fag fed:|

